src/assets/images/img_draw_cup_1.svg

<svg xmlns="http://www.w3.org/2000/svg" width="1555" height="1564" fill="none"><path stroke="#2B2A29" stroke-miterlimit="22.926" stroke-width="7" d="M111.661 97.597c11.856-1.524 23.711-3.05 34.552-9.172 10.841-6.123 20.669-16.841 34.33-19.899 13.66-3.057 31.156 1.547 44.737-2.597 13.582-4.144 23.251-17.035 36.373-20.258 13.121-3.223 29.696 3.223 43.97.921 14.272-2.301 26.242-13.352 41.665-15.654 15.423-2.302 34.301 4.144 50.876 1.612 16.574-2.532 30.847-14.043 46.041-15.194 15.193-1.151 31.307 8.058 46.5 7.367 15.194-.69 29.467-11.28 44.891-11.97 15.423-.69 31.997 8.517 47.191 8.017 15.193-.5 29.005-10.707 42.817-12.09 13.812-1.38 27.624 6.064 41.207 5.183 13.582-.88 26.934-10.089 40.977-9.859 14.043.23 28.774 9.9 43.943 10.126 15.168.227 30.772-8.988 44.439-8.615 13.669.375 25.402 10.338 39.958 10.026 14.557-.313 31.938-10.903 47.763-9.636 15.828 1.266 30.101 14.387 46.559 15.02 16.46.633 35.107-11.223 50.646-9.956 15.538 1.266 27.964 15.653 46.614 17.553 18.65 1.9 43.51-8.69 61.87-5.641 18.36 3.05 30.21 19.74 47.65 21.697 17.44 1.957 40.46-10.82 59.16-7.655 18.71 3.166 33.1 22.273 51 31.873 17.91 9.601 39.34 9.695 50.49 10.584 11.14.889 12 2.574 12.86 4.258"/><path stroke="#2B2A29" stroke-miterlimit="22.926" stroke-width="7" d="M112.266 96.734c1.223 15.784 2.446 31.566 5.129 48.895 2.683 17.331 6.827 36.208 9.82 53.013 2.993 16.805 4.833 31.537 3.452 43.508-1.381 11.971-5.985 21.179-10.128 33.15-4.144 11.97-7.828 26.703-12.432 44.197-4.604 17.497-10.128 37.755-14.503 58.243-4.373 20.489-7.596 41.206-19.336 84.946-11.74 43.739-31.999 110.497-45.58 155.156-13.582 44.661-20.489 67.219-23.25 90.93-2.763 23.711-1.383 48.574 2.761 74.587 4.144 26.013 11.05 53.177 18.878 81.491 7.826 28.316 16.573 57.783 24.401 78.5 7.827 20.718 14.732 32.689 23.25 43.279 8.517 10.589 18.647 19.801 28.315 34.991 9.668 15.19 18.877 36.37 24.861 50.18 5.986 13.82 8.749 20.26 15.425 26.48 6.676 6.21 17.266 12.2 31.077 25.78 13.813 13.58 30.848 34.76 41.437 49.49 10.59 14.74 14.733 23.02 16.113 31.54 1.381 8.52 0 17.27 4.835 29.93 4.834 12.66 15.885 29.23 27.855 43.28 11.97 14.04 24.862 25.55 33.379 35.91 8.518 10.36 12.662 19.57 24.402 31.77 11.741 12.2 31.077 27.39 47.883 38.9 16.804 11.51 31.077 19.34 43.739 23.94 12.66 4.61 23.71 5.99 32.918 3.68 9.208-2.3 16.575-8.28 26.244-9.2 9.669-.92 21.638 3.22 33.378 12.2 11.742 8.98 23.251 22.79 36.834 33.15 13.581 10.36 29.234 17.26 41.205 25.78 11.971 8.52 20.258 18.65 33.38 32.23 13.122 13.58 31.078 30.62 49.034 40.74 17.955 10.13 35.911 13.36 50.184 12.9 14.272-.46 24.862-4.61 37.524-9.9 12.661-5.3 27.393-11.74 40.514-21.41 13.122-9.67 24.632-22.56 40.516-32.23 15.884-9.67 36.143-16.12 53.867-27.16 17.727-11.05 32.92-26.71 46.272-35 13.352-8.28 24.862-9.2 35.912-19.33 11.05-10.13 21.639-29.47 46.269-38.68 24.63-9.2 63.31-8.28 92.31-10.36 29.01-2.07 48.35-7.13 66.99-16.34 18.65-9.21 36.6-22.56 52.72-28.08 16.11-5.53 30.39-3.23 43.28-4.15 12.89-.92 24.4-5.06 39.13-9.67 14.73-4.6 32.69-9.67 47.88-17.49 15.2-7.83 27.63-18.42 37.76-31.31 10.13-12.89 17.95-28.08 28.08-46.73 10.13-18.65 22.56-40.75 34.53-60.32 11.97-19.56 23.48-36.6 35.45-48.11 11.97-11.51 24.41-17.49 30.16-26.01 5.76-8.52 4.84-19.57 2.53-29.24-2.3-9.66-5.98-17.95-3.91-28.31 2.07-10.36 9.9-22.791 15.65-37.295 5.76-14.502 9.44-31.077 10.36-48.573.92-17.495-.92-35.911-4.14-62.846-3.22-26.933-7.83-62.385-12.66-91.621-4.84-29.235-9.9-52.256-13.82-74.355-3.91-22.1-6.67-43.277-11.5-62.155-4.84-18.876-11.74-35.451-17.96-51.566-6.22-16.114-11.74-31.768-14.73-42.357-3-10.59-3.46-16.114-7.14-20.949-3.68-4.835-10.59-8.977-16.11-16.114-5.53-7.137-9.67-17.265-14.97-30.157-5.29-12.891-11.74-28.545-20.95-45.35-9.2-16.804-21.17-34.761-32.22-46.041-11.05-11.279-21.18-15.884-28.09-22.329-6.9-6.445-10.59-14.734-12.2-24.172-1.61-9.437-1.15-20.028-2.99-29.696-1.84-9.669-5.99-18.415-10.82-25.322-4.84-6.906-10.36-11.971-14.04-21.64-3.69-9.667-5.53-23.94-8.06-36.141-2.53-12.201-5.76-22.329-8.06-33.149-2.3-10.82-3.68-22.33-1.61-33.841 2.07-11.51 7.6-23.019 11.74-33.609 4.14-10.589 6.91-20.259 6.59-28.196-.31-7.939-3.7-14.146-7.09-20.353"/><path stroke="#2B2A29" stroke-miterlimit="22.926" stroke-width="7" d="M130.396 220.3c31.278-14.515 62.557-29.028 100.297-42.271 37.737-13.241 81.937-25.211 133.042-33.96 51.104-8.748 109.116-14.272 165.286-17.956 56.169-3.682 110.497-5.524 156.998-6.445 46.501-.92 85.175-.92 126.612-2.763 41.437-1.842 85.636-5.524 127.073-7.827 41.436-2.301 80.116-3.223 116.946-1.381 36.83 1.843 71.82 6.446 111.9 16.424 40.07 9.977 85.24 25.329 130.4 40.68"/><path stroke="#2B2A29" stroke-miterlimit="22.926" stroke-width="7" d="M126.545 258.993c25.197-7.154 50.391-14.308 80.484-22.949 30.094-8.642 65.085-18.77 109.284-28.899 44.199-10.129 97.606-20.258 140.423-25.783 42.818-5.525 75.048-6.445 121.088-9.668 46.041-3.223 105.894-8.747 158.841-11.97 52.945-3.224 98.987-4.144 145.947-4.144 46.962 0 94.845.92 138.578 1.381 43.74.461 83.34.46 129.21 7.331 45.87 6.87 98.02 20.609 150.16 34.35"/><path stroke="#2B2A29" stroke-dasharray="2.67 8" stroke-miterlimit="22.926" stroke-opacity=".949" stroke-width="7" d="M641.014 566.607c37.753-22.099 75.507-44.198 111.878-69.06 36.372-24.863 71.364-52.487 101.751-77.349 30.387-24.862 56.169-46.961 84.254-74.126 28.086-27.163 58.472-59.392 83.363-91.537 24.89-32.146 44.29-64.208 63.68-96.271"/><path stroke="#2B2A29" stroke-miterlimit="22.926" stroke-width="7" d="M130.974 238.685c27.632-10.283 55.265-20.566 81.513-29.392 26.248-8.823 51.11-16.19 82.648-24.017 31.537-7.827 69.751-16.114 104.973-23.02 35.221-6.906 67.448-12.431 107.965-15.884 40.515-3.453 89.318-4.835 133.287-5.525 43.969-.691 83.103-.691 125.231-2.072 42.127-1.382 87.247-4.143 135.358-5.755 48.114-1.612 99.221-2.073 141.581-.922 42.35 1.152 75.96 3.914 116.93 12.465 40.98 8.549 89.31 22.886 137.64 37.224"/><path stroke="#2B2A29" stroke-dasharray="2.67 13.33" stroke-miterlimit="22.926" stroke-opacity=".949" stroke-width="7" d="M1541.03 825.88c-24.68 54.46-49.37 108.921-76.44 151.805-27.07 42.885-56.54 74.195-93.83 115.165-37.29 40.98-82.41 91.62-146.75 143.25-64.33 51.62-147.88 104.22-231.432 156.82"/><path stroke="#2B2A29" stroke-dasharray="2.67 13.33" stroke-miterlimit="22.926" stroke-width="7" d="M1551.02 934.603c-37.22 50.447-74.44 100.897-115.15 148.677-40.71 47.79-84.91 92.91-136.18 139.23-51.27 46.33-109.62 93.87-167.97 141.41"/><path stroke="#2B2A29" stroke-dasharray="2.67 13.33" stroke-miterlimit="22.926" stroke-opacity=".949" stroke-width="7" d="M1525.31 1034.8c-41.54 53.88-83.08 107.76-125.07 154.91-41.98 47.14-84.41 87.55-126.84 127.95"/><path stroke="#2B2A29" stroke-dasharray="2.67 13.33" stroke-miterlimit="22.926" stroke-width="7" d="M1530.01 756.283c-43.11 74.898-86.21 149.794-130.08 208.646-43.87 58.851-88.5 101.661-127.18 137.111-38.67 35.45-71.39 63.55-125.96 106.14-54.58 42.59-131.01 99.68-200.987 150.79-69.981 51.1-133.518 96.22-178.904 126.63-45.386 30.41-72.622 46.11-99.857 61.8"/><path stroke="#2B2A29" stroke-dasharray="2.67 13.33" stroke-miterlimit="22.926" stroke-opacity=".949" stroke-width="7" d="M618.008 1506.66c51.868-37.11 103.736-74.21 166.962-119.01 63.227-44.8 137.812-97.28 211.478-152.99 73.662-55.71 146.412-114.64 211.322-172.65 64.92-58.02 122.01-115.106 166.67-170.356 44.66-55.248 76.89-108.654 98.27-144.524 21.39-35.868 31.93-54.2 42.47-72.531"/><path stroke="#2B2A29" stroke-dasharray="2.67 13.33" stroke-miterlimit="22.926" stroke-opacity=".949" stroke-width="7" d="M563.864 1461.79c65.312-45.17 130.623-90.34 189.982-132.72 59.36-42.39 112.768-81.98 163.9-121.26 51.133-39.27 99.994-78.23 152.014-121.04 52.03-42.82 107.22-89.503 148.63-129.419 41.41-39.913 69.04-73.062 104.49-117.723 35.45-44.659 78.73-100.828 108.04-144.008 29.32-43.18 44.67-73.371 60.02-103.561"/><path stroke="#2B2A29" stroke-dasharray="2.67 13.33" stroke-miterlimit="22.926" stroke-opacity=".949" stroke-width="7" d="M732.175 1259.98c67.219-49.72 134.439-99.45 201.197-151.47 66.758-52.03 133.058-106.36 182.778-152.399 49.73-46.041 82.88-83.793 122.93-129.374 40.06-45.58 87.02-98.986 125.14-151.276 38.11-52.288 67.39-103.458 96.66-154.63M803.998 1094.23c48.803-31.3 97.606-62.61 141.344-97.602 43.739-34.991 82.418-73.665 126.148-116.023 43.74-42.357 92.55-88.397 137.67-137.2 45.12-48.803 86.55-100.369 122.44-148.147 35.89-47.779 66.24-91.769 96.58-135.759M812.285 997.549c42.358-29.467 84.715-58.932 125.691-90.701 40.977-31.767 80.574-65.838 117.404-103.592 36.83-37.752 70.9-79.189 108.66-124.31 37.75-45.118 79.19-93.923 116.6-142.512 37.41-48.59 70.79-96.966 104.18-145.343M618.915 1005.84c62.615-34.074 125.231-68.145 180.94-106.359s104.511-80.571 151.473-123.388c46.962-42.818 92.082-86.096 130.752-125.691 38.68-39.595 70.91-75.507 108.66-120.626 37.75-45.12 81.03-99.448 107.35-134.324 26.31-34.875 35.67-50.297 45.02-65.72M569.19 934.012c69.479-37.506 138.96-75.015 200.654-120.135 61.694-45.12 115.604-97.852 166.5-145.856 50.896-48.006 98.776-91.284 144.816-135.483 46.04-44.199 90.24-89.319 129.19-133.573 38.94-44.254 72.63-87.644 106.33-131.033M558.141 823.515c52.486-28.545 104.973-57.091 154.698-92.542 49.723-35.451 96.683-77.808 148.249-123.388 51.566-45.581 107.736-94.385 155.152-137.202 47.43-42.818 86.1-79.65 118.33-114.641 32.23-34.991 58.01-68.14 79.01-95.481 21.01-27.34 37.23-48.871 53.45-70.402M671.401 646.719c42.358-27.624 84.715-55.249 120.166-79.651 35.452-24.401 63.996-45.579 101.75-77.807 37.753-32.229 84.714-75.508 128.453-119.247 43.74-43.738 84.25-87.938 110.82-121.297 26.56-33.358 39.17-55.878 51.78-78.397M502.893 527.933c49.724-28.545 99.447-57.089 146.869-84.714 47.421-27.624 92.542-54.328 137.661-85.176 45.121-30.847 90.241-65.838 125.711-100.084 35.472-34.245 61.294-67.744 87.116-101.244M588.528 395.337c31.307-18.416 62.615-36.833 98.527-60.314s76.427-52.025 114.656-82.759 74.169-63.655 110.112-96.578M629.964 287.602c34.992-17.496 69.982-34.992 99.923-56.841 29.939-21.85 54.829-48.053 79.718-74.257"/><path stroke="#2B2A29" stroke-dasharray="4 20" stroke-miterlimit="22.926" stroke-width="7" d="M121.976 168.071c31.277-14.513 62.556-29.027 100.295-42.269 37.738-13.242 81.937-25.213 133.043-33.96C406.418 83.093 464.429 77.57 520.6 73.885c56.168-3.683 110.497-5.525 156.998-6.445 46.501-.92 85.175-.92 126.612-2.763 41.437-1.841 85.635-5.525 127.072-7.827 41.436-2.301 80.108-3.222 116.948-1.38 36.83 1.84 71.82 6.445 115.52 18.842 43.69 12.397 96.09 32.587 148.49 52.776"/></svg>

<svg width="1555" height="1564" viewBox="0 0 1555 1564" fill="none" xmlns="http://www.w3.org/2000/svg">
<path d="M111.661 97.5972C123.517 96.0729 135.372 94.5465 146.213 88.4245C157.054 82.3025 166.882 71.5839 180.543 68.5263C194.203 65.4687 211.699 70.0733 225.28 65.9294C238.862 61.7855 248.531 48.8942 261.653 45.6706C274.774 42.4481 291.349 48.8943 305.623 46.592C319.895 44.2909 331.865 33.2401 347.288 30.9378C362.711 28.6355 381.589 35.0817 398.164 32.5496C414.738 30.0176 429.011 18.5073 444.205 17.3561C459.398 16.205 475.512 25.4142 490.705 24.7226C505.899 24.0333 520.172 13.4432 535.596 12.7527C551.019 12.0622 567.593 21.2703 582.787 20.7698C597.98 20.2693 611.792 10.0626 625.604 8.6805C639.416 7.29959 653.228 14.7444 666.811 13.8629C680.393 12.9825 693.745 3.77445 707.788 4.00423C721.831 4.234 736.562 13.9039 751.731 14.1303C766.899 14.3566 782.503 5.14175 796.17 5.51485C809.839 5.89022 821.572 15.8535 836.128 15.5407C850.685 15.2279 868.066 4.63781 883.891 5.90498C899.719 7.17101 913.992 20.292 930.45 20.9244C946.91 21.558 965.557 9.70199 981.096 10.9692C996.634 12.2352 1009.06 26.6222 1027.71 28.5218C1046.36 30.4214 1071.22 19.8313 1089.58 22.881C1107.94 25.9317 1119.79 42.621 1137.23 44.5775C1154.67 46.5352 1177.69 33.7577 1196.39 36.9233C1215.1 40.089 1229.49 59.1955 1247.39 68.7959C1265.3 78.3975 1286.73 78.4908 1297.88 79.3803C1309.02 80.2687 1309.88 81.9544 1310.74 83.6379" stroke="#2B2A29" stroke-width="7" stroke-miterlimit="22.9256"/>
<path d="M112.266 96.7338C113.489 112.518 114.712 128.3 117.395 145.629C120.078 162.96 124.222 181.837 127.215 198.642C130.208 215.447 132.048 230.179 130.667 242.15C129.286 254.121 124.682 263.329 120.539 275.3C116.395 287.27 112.711 302.003 108.107 319.497C103.503 336.994 97.9791 357.252 93.6043 377.74C89.2306 398.229 86.0081 418.946 74.268 462.686C62.5279 506.425 42.2692 573.183 28.6875 617.842C15.1058 662.503 8.19899 685.061 5.43715 708.772C2.67532 732.483 4.05507 757.346 8.19896 783.359C12.3429 809.372 19.2486 836.536 27.0768 864.85C34.9028 893.166 43.6501 922.633 51.4783 943.35C59.3054 964.068 66.21 976.039 74.7287 986.629C83.2451 997.218 93.3745 1006.43 103.043 1021.62C112.711 1036.81 121.92 1057.99 127.904 1071.8C133.89 1085.62 136.653 1092.06 143.329 1098.28C150.005 1104.49 160.595 1110.48 174.406 1124.06C188.219 1137.64 205.254 1158.82 215.843 1173.55C226.433 1188.29 230.576 1196.57 231.956 1205.09C233.337 1213.61 231.956 1222.36 236.791 1235.02C241.625 1247.68 252.676 1264.25 264.646 1278.3C276.616 1292.34 289.508 1303.85 298.025 1314.21C306.543 1324.57 310.687 1333.78 322.427 1345.98C334.168 1358.18 353.504 1373.37 370.31 1384.88C387.114 1396.39 401.387 1404.22 414.049 1408.82C426.709 1413.43 437.759 1414.81 446.967 1412.5C456.175 1410.2 463.542 1404.22 473.211 1403.3C482.88 1402.38 494.849 1406.52 506.589 1415.5C518.331 1424.48 529.84 1438.29 543.423 1448.65C557.004 1459.01 572.657 1465.91 584.628 1474.43C596.599 1482.95 604.886 1493.08 618.008 1506.66C631.13 1520.24 649.086 1537.28 667.042 1547.4C684.997 1557.53 702.953 1560.76 717.226 1560.3C731.498 1559.84 742.088 1555.69 754.75 1550.4C767.411 1545.1 782.143 1538.66 795.264 1528.99C808.386 1519.32 819.896 1506.43 835.78 1496.76C851.664 1487.09 871.923 1480.64 889.647 1469.6C907.374 1458.55 922.567 1442.89 935.919 1434.6C949.271 1426.32 960.781 1425.4 971.831 1415.27C982.881 1405.14 993.47 1385.8 1018.1 1376.59C1042.73 1367.39 1081.41 1368.31 1110.41 1366.23C1139.42 1364.16 1158.76 1359.1 1177.4 1349.89C1196.05 1340.68 1214 1327.33 1230.12 1321.81C1246.23 1316.28 1260.51 1318.58 1273.4 1317.66C1286.29 1316.74 1297.8 1312.6 1312.53 1307.99C1327.26 1303.39 1345.22 1298.32 1360.41 1290.5C1375.61 1282.67 1388.04 1272.08 1398.17 1259.19C1408.3 1246.3 1416.12 1231.11 1426.25 1212.46C1436.38 1193.81 1448.81 1171.71 1460.78 1152.14C1472.75 1132.58 1484.26 1115.54 1496.23 1104.03C1508.2 1092.52 1520.64 1086.54 1526.39 1078.02C1532.15 1069.5 1531.23 1058.45 1528.92 1048.78C1526.62 1039.12 1522.94 1030.83 1525.01 1020.47C1527.08 1010.11 1534.91 997.679 1540.66 983.175C1546.42 968.673 1550.1 952.098 1551.02 934.602C1551.94 917.107 1550.1 898.691 1546.88 871.756C1543.66 844.823 1539.05 809.371 1534.22 780.135C1529.38 750.9 1524.32 727.879 1520.4 705.78C1516.49 683.68 1513.73 662.503 1508.9 643.625C1504.06 624.749 1497.16 608.174 1490.94 592.059C1484.72 575.945 1479.2 560.291 1476.21 549.702C1473.21 539.112 1472.75 533.588 1469.07 528.753C1465.39 523.918 1458.48 519.776 1452.96 512.639C1447.43 505.502 1443.29 495.374 1437.99 482.482C1432.7 469.591 1426.25 453.937 1417.04 437.132C1407.84 420.328 1395.87 402.371 1384.82 391.091C1373.77 379.812 1363.64 375.207 1356.73 368.762C1349.83 362.317 1346.14 354.028 1344.53 344.59C1342.92 335.153 1343.38 324.562 1341.54 314.894C1339.7 305.225 1335.55 296.479 1330.72 289.572C1325.88 282.666 1320.36 277.601 1316.68 267.932C1312.99 258.265 1311.15 243.992 1308.62 231.791C1306.09 219.59 1302.86 209.462 1300.56 198.642C1298.26 187.822 1296.88 176.312 1298.95 164.801C1301.02 153.291 1306.55 141.782 1310.69 131.192C1314.83 120.603 1317.6 110.933 1317.28 102.996C1316.97 95.0571 1313.58 88.8499 1310.19 82.6426" stroke="#2B2A29" stroke-width="7" stroke-miterlimit="22.9256"/>
<path d="M130.396 220.3C161.674 205.785 192.953 191.272 230.693 178.029C268.43 164.788 312.63 152.818 363.735 144.069C414.839 135.321 472.851 129.797 529.021 126.113C585.19 122.431 639.518 120.589 686.019 119.668C732.52 118.748 771.194 118.748 812.631 116.905C854.068 115.063 898.267 111.381 939.704 109.078C981.14 106.777 1019.82 105.855 1056.65 107.697C1093.48 109.54 1128.47 114.143 1168.55 124.121C1208.62 134.098 1253.79 149.45 1298.95 164.801" stroke="#2B2A29" stroke-width="7" stroke-miterlimit="22.9256"/>
<path d="M126.545 258.993C151.742 251.839 176.936 244.685 207.029 236.044C237.123 227.402 272.114 217.274 316.313 207.145C360.512 197.016 413.919 186.887 456.736 181.362C499.554 175.837 531.784 174.917 577.824 171.694C623.865 168.471 683.718 162.947 736.665 159.724C789.61 156.5 835.652 155.58 882.612 155.58C929.574 155.58 977.457 156.5 1021.19 156.961C1064.93 157.422 1104.53 157.421 1150.4 164.292C1196.27 171.162 1248.42 184.901 1300.56 198.642" stroke="#2B2A29" stroke-width="7" stroke-miterlimit="22.9256"/>
<path d="M641.014 566.607C678.767 544.508 716.521 522.409 752.892 497.547C789.264 472.684 824.256 445.06 854.643 420.198C885.03 395.336 910.812 373.237 938.897 346.072C966.983 318.909 997.369 286.68 1022.26 254.535C1047.15 222.389 1066.55 190.327 1085.94 158.264" stroke="#2B2A29" stroke-opacity="0.94902" stroke-width="7" stroke-miterlimit="22.9256" stroke-dasharray="2.67 8"/>
<path d="M130.974 238.685C158.606 228.402 186.239 218.119 212.487 209.293C238.735 200.47 263.597 193.103 295.135 185.276C326.672 177.449 364.886 169.162 400.108 162.256C435.329 155.35 467.556 149.825 508.073 146.372C548.588 142.919 597.391 141.537 641.36 140.847C685.329 140.156 724.463 140.156 766.591 138.775C808.718 137.393 853.838 134.632 901.949 133.02C950.063 131.408 1001.17 130.947 1043.53 132.098C1085.88 133.25 1119.49 136.012 1160.46 144.563C1201.44 153.112 1249.77 167.449 1298.1 181.787" stroke="#2B2A29" stroke-width="7" stroke-miterlimit="22.9256"/>
<path d="M1541.03 825.88C1516.35 880.34 1491.66 934.801 1464.59 977.685C1437.52 1020.57 1408.05 1051.88 1370.76 1092.85C1333.47 1133.83 1288.35 1184.47 1224.01 1236.1C1159.68 1287.72 1076.13 1340.32 992.578 1392.92" stroke="#2B2A29" stroke-opacity="0.94902" stroke-width="7" stroke-miterlimit="22.9256" stroke-dasharray="2.67 13.33"/>
<path d="M1551.02 934.603C1513.8 985.05 1476.58 1035.5 1435.87 1083.28C1395.16 1131.07 1350.96 1176.19 1299.69 1222.51C1248.42 1268.84 1190.07 1316.38 1131.72 1363.92" stroke="#2B2A29" stroke-width="7" stroke-miterlimit="22.9256" stroke-dasharray="2.67 13.33"/>
<path d="M1525.31 1034.8C1483.77 1088.68 1442.23 1142.56 1400.24 1189.71C1358.26 1236.85 1315.83 1277.26 1273.4 1317.66" stroke="#2B2A29" stroke-opacity="0.94902" stroke-width="7" stroke-miterlimit="22.9256" stroke-dasharray="2.67 13.33"/>
<path d="M1530.01 756.283C1486.9 831.181 1443.8 906.077 1399.93 964.929C1356.06 1023.78 1311.43 1066.59 1272.75 1102.04C1234.08 1137.49 1201.36 1165.59 1146.79 1208.18C1092.21 1250.77 1015.78 1307.86 945.803 1358.97C875.822 1410.07 812.285 1455.19 766.899 1485.6C721.513 1516.01 694.277 1531.71 667.042 1547.4" stroke="#2B2A29" stroke-width="7" stroke-miterlimit="22.9256" stroke-dasharray="2.67 13.33"/>
<path d="M618.008 1506.66C669.876 1469.55 721.744 1432.45 784.97 1387.65C848.197 1342.85 922.782 1290.37 996.448 1234.66C1070.11 1178.95 1142.86 1120.02 1207.77 1062.01C1272.69 1003.99 1329.78 946.904 1374.44 891.654C1419.1 836.406 1451.33 783 1472.71 747.13C1494.1 711.262 1504.64 692.93 1515.18 674.599" stroke="#2B2A29" stroke-opacity="0.94902" stroke-width="7" stroke-miterlimit="22.9256" stroke-dasharray="2.67 13.33"/>
<path d="M563.864 1461.79C629.176 1416.62 694.487 1371.45 753.846 1329.07C813.206 1286.68 866.614 1247.09 917.746 1207.81C968.879 1168.54 1017.74 1129.58 1069.76 1086.77C1121.79 1043.95 1176.98 997.267 1218.39 957.351C1259.8 917.438 1287.43 884.289 1322.88 839.628C1358.33 794.969 1401.61 738.8 1430.92 695.62C1460.24 652.44 1475.59 622.249 1490.94 592.059" stroke="#2B2A29" stroke-opacity="0.94902" stroke-width="7" stroke-miterlimit="22.9256" stroke-dasharray="2.67 13.33"/>
<path d="M732.175 1259.98C799.394 1210.26 866.614 1160.53 933.372 1108.51C1000.13 1056.48 1066.43 1002.15 1116.15 956.111C1165.88 910.07 1199.03 872.318 1239.08 826.737C1279.14 781.157 1326.1 727.751 1364.22 675.461C1402.33 623.173 1431.61 572.003 1460.88 520.831" stroke="#2B2A29" stroke-opacity="0.94902" stroke-width="7" stroke-miterlimit="22.9256" stroke-dasharray="2.67 13.33"/>
<path d="M803.998 1094.23C852.801 1062.93 901.604 1031.62 945.342 996.628C989.081 961.637 1027.76 922.963 1071.49 880.605C1115.23 838.248 1164.04 792.208 1209.16 743.405C1254.28 694.602 1295.71 643.036 1331.6 595.258C1367.49 547.479 1397.84 503.489 1428.18 459.499" stroke="#2B2A29" stroke-opacity="0.94902" stroke-width="7" stroke-miterlimit="22.9256" stroke-dasharray="2.67 13.33"/>
<path d="M812.285 997.549C854.643 968.082 897 938.617 937.976 906.848C978.953 875.081 1018.55 841.01 1055.38 803.256C1092.21 765.504 1126.28 724.067 1164.04 678.946C1201.79 633.828 1243.23 585.023 1280.64 536.434C1318.05 487.844 1351.43 439.468 1384.82 391.091" stroke="#2B2A29" stroke-opacity="0.94902" stroke-width="7" stroke-miterlimit="22.9256" stroke-dasharray="2.67 13.33"/>
<path d="M618.915 1005.84C681.53 971.766 744.146 937.695 799.855 899.481C855.564 861.267 904.366 818.91 951.328 776.093C998.29 733.275 1043.41 689.997 1082.08 650.402C1120.76 610.807 1152.99 574.895 1190.74 529.776C1228.49 484.656 1271.77 430.328 1298.09 395.452C1324.4 360.577 1333.76 345.155 1343.11 329.732" stroke="#2B2A29" stroke-opacity="0.94902" stroke-width="7" stroke-miterlimit="22.9256" stroke-dasharray="2.67 13.33"/>
<path d="M569.19 934.012C638.669 896.506 708.15 858.997 769.844 813.877C831.538 768.757 885.448 716.025 936.344 668.021C987.24 620.015 1035.12 576.737 1081.16 532.538C1127.2 488.339 1171.4 443.219 1210.35 398.965C1249.29 354.711 1282.98 311.321 1316.68 267.932" stroke="#2B2A29" stroke-opacity="0.94902" stroke-width="7" stroke-miterlimit="22.9256" stroke-dasharray="2.67 13.33"/>
<path d="M558.141 823.515C610.627 794.97 663.114 766.424 712.839 730.973C762.562 695.522 809.522 653.165 861.088 607.585C912.654 562.004 968.824 513.2 1016.24 470.383C1063.67 427.565 1102.34 390.733 1134.57 355.742C1166.8 320.751 1192.58 287.602 1213.58 260.261C1234.59 232.921 1250.81 211.39 1267.03 189.859" stroke="#2B2A29" stroke-opacity="0.94902" stroke-width="7" stroke-miterlimit="22.9256" stroke-dasharray="2.67 13.33"/>
<path d="M671.401 646.719C713.759 619.095 756.116 591.47 791.567 567.068C827.019 542.667 855.563 521.489 893.317 489.261C931.07 457.032 978.031 413.753 1021.77 370.014C1065.51 326.276 1106.02 282.076 1132.59 248.717C1159.15 215.359 1171.76 192.839 1184.37 170.32" stroke="#2B2A29" stroke-opacity="0.94902" stroke-width="7" stroke-miterlimit="22.9256" stroke-dasharray="2.67 13.33"/>
<path d="M502.893 527.933C552.617 499.388 602.34 470.844 649.762 443.219C697.183 415.595 742.304 388.891 787.423 358.043C832.544 327.196 877.664 292.205 913.134 257.959C948.606 223.714 974.428 190.215 1000.25 156.715" stroke="#2B2A29" stroke-opacity="0.94902" stroke-width="7" stroke-miterlimit="22.9256" stroke-dasharray="2.67 13.33"/>
<path d="M588.528 395.337C619.835 376.921 651.143 358.504 687.055 335.023C722.967 311.542 763.482 282.998 801.711 252.264C839.94 221.53 875.88 188.609 911.823 155.686" stroke="#2B2A29" stroke-opacity="0.94902" stroke-width="7" stroke-miterlimit="22.9256" stroke-dasharray="2.67 13.33"/>
<path d="M629.964 287.602C664.956 270.106 699.946 252.61 729.887 230.761C759.826 208.911 784.716 182.708 809.605 156.504" stroke="#2B2A29" stroke-opacity="0.94902" stroke-width="7" stroke-miterlimit="22.9256" stroke-dasharray="2.67 13.33"/>
<path d="M121.976 168.071C153.253 153.558 184.532 139.044 222.271 125.802C260.009 112.56 304.208 100.589 355.314 91.8418C406.418 83.0933 464.429 77.5696 520.6 73.8853C576.768 70.2021 631.097 68.3605 677.598 67.4403C724.099 66.5201 762.773 66.5201 804.21 64.6773C845.647 62.8357 889.845 59.1525 931.282 56.8502C972.718 54.549 1011.39 53.6277 1048.23 55.4693C1085.06 57.3109 1120.05 61.9154 1163.75 74.3118C1207.44 86.7094 1259.84 106.899 1312.24 127.088" stroke="#2B2A29" stroke-width="7" stroke-miterlimit="22.9256" stroke-dasharray="4 20"/>
</svg>
